packages/design-assets/icons/16px/Chevrons/Double Left.svg

<?xml version="1.0" encoding="UTF-8"?>
<svg width="16px" height="16px" viewBox="0 0 16 16" version="1.1" xmlns="http://www.w3.org/2000/svg" xmlns:xlink="http://www.w3.org/1999/xlink">
    <!-- Generator: Sketch 54.1 (76490) - https://sketchapp.com -->
    <title>Icons/16px/Chevron/Double Left</title>
    <desc>Created with Sketch.</desc>
    <g id="Icons/16px/Chevron/Double-Left" stroke="none" stroke-width="1" fill="none" fill-rule="evenodd">
        <path d="M5.41421356,8 L7.70710678,10.2928932 C8.09763107,10.6834175 8.09763107,11.3165825 7.70710678,11.7071068 C7.31658249,12.0976311 6.68341751,12.0976311 6.29289322,11.7071068 L3.29289322,8.70710678 C2.90236893,8.31658249 2.90236893,7.68341751 3.29289322,7.29289322 L6.29289322,4.29289322 C6.68341751,3.90236893 7.31658249,3.90236893 7.70710678,4.29289322 C8.09763107,4.68341751 8.09763107,5.31658249 7.70710678,5.70710678 L5.41421356,8 Z M10.4142136,8 L12.7071068,10.2928932 C13.0976311,10.6834175 13.0976311,11.3165825 12.7071068,11.7071068 C12.3165825,12.0976311 11.6834175,12.0976311 11.2928932,11.7071068 L8.29289322,8.70710678 C7.90236893,8.31658249 7.90236893,7.68341751 8.29289322,7.29289322 L11.2928932,4.29289322 C11.6834175,3.90236893 12.3165825,3.90236893 12.7071068,4.29289322 C13.0976311,4.68341751 13.0976311,5.31658249 12.7071068,5.70710678 L10.4142136,8 Z" id="i-16-chevron-double-left" fill="#818F99"></path>
    </g>
</svg>

<svg width="16" height="16" xmlns="http://www.w3.org/2000/svg"><path d="M5.414 8l2.293 2.293a1 1 0 0 1-1.414 1.414l-3-3a1 1 0 0 1 0-1.414l3-3a1 1 0 0 1 1.414 1.414L5.414 8zm5 0l2.293 2.293a1 1 0 0 1-1.414 1.414l-3-3a1 1 0 0 1 0-1.414l3-3a1 1 0 0 1 1.414 1.414L10.414 8z" fill="#818F99" fill-rule="evenodd"/></svg>
